!!!COM: Anon.
!!!OTL: Hac In Anni Ianua
!!!SCA: Folio 229'-230
!!!YOR: from 'Thirty-Five Conductus for Two and Three Voices', p.38
!!!YOR: edited by Janet Knapp, Collegium Musicum No. 6, Yale University (1965)
!!!YOR: from the School of Notre Dame; circa 1170-1240
!!!YOO: Yale University
!!!YOY: 1965
**kern	**kern	**kern
*M6/8	*M6/8	*M6/8
=1	=1	=1
8G	8g	8c
8A	16f	4d
.	16e	.
8B	8d	.
8c	16c	16e
.	16B	16f
4c	8A	4g
.	8G	.
=2	=2	=2
16B	16G	16d
16A	16A	16e
8B	8G	8f
8c	8F	8e
8B	8G	8d
8B	8G	4r
8A	8A	.
=3	=3	=3
8G	8d	8d
8A	8c	8e
8B	8B	8f
8c	8A	8g
8c	8A	16f
.	.	16e
8d	8G	8d
=4	=4	=4
8c	8F	8f
8B	8G	16e
.	.	16d
8A	8A	8c
8B	8G	8d
8B	4r	4r
8A	.	.
=5	=5	=5
8G	8d	8d
4F	16c	8e
.	16B	.
.	8A	8f
8G	8c	8g
8G	16B	16f
.	16A	16e
8A	8G	8d
=6	=6	=6
8c	8F	16c
.	.	16d
8B	8G	8d
8A	8A	8e
8B	8G	8g
8B	8G	4r
8A	8F	.
=7	=7	=7
16A	8G	8d
16G	.	.
8G	8A	16e
.	.	16f
8F	8B	8e
8G	16c	8c
.	16B	.
8G	8B	4d
8A	8A	.
=8	=8	=8
16c	16A	8f
16B	16G	.
8B	8G	16e
.	.	16d
8A	8F	8c
8G	8G	8d
4r	4r	4r
=9	=9	=9
8A	8c	8c
4A	8d	8B
.	8e	8A
8A	8d	8d
8A	8c	8e
8B	8B	8f
=10	=10	=10
8G	8d	8d
8G	16c	8d
.	16B	.
8A	8A	8e
8F	8c	8f
4r	4r	4r
=11	=11	=11
8A	8A	8e
8B	8G	8d
8c	8F	8c
8B	8G	8f
8B	8G	8g
8c	8A	8e
=12	=12	=12
{24B	16c	16d
24A	.	.
.	16B	16e
24G}	.	.
8G	8B	8f
8F	8A	8e
8G	8G	8d
4r	4r	4r
=13	=13	=13
8d	8d	8g
8d	8d	8f
8c	8e	8e
16B	16f	16d
16A	16e	16e
4c	8d	8f
.	8c	8g
=14	=14	=14
8d	16B	8d
.	16c	.
8d	16B	8e
.	16A	.
8c	8G	8f
8d	8G	8g
8d	4r	4r
8e	.	.
=15	=15	=15
8f	8F	8c
8e	8G	4d
8d	8A	.
8B	8B	8e
8c	16A	8d
.	16G	.
8B	8F	8c
=16	=16	=16
8A	8c	8d
4G	8c	4e
.	8B	.
8G	8B	8f
8F	8A	8e
8G	8G	8d
=17	=17	=17
8A	8A	8e
8A	8A	8e
8G	8B	8d
4F	8c	8f
.	8B	8e
8F	8G	8d
=18	=18	=18
8c	8F	8c
8B	8G	8c
8A	8A	8d
4B	4G	4e
8c	8A	8c
=19	=19	=19
8B	4B	4d
8A	.	.
8G	8A	8e
4F	4c	4f
8r	8r	8r
=20	=20	=20
4A	16c	16e
.	16B	16d
.	8B	8d
8F	8A	8c
4G;	4G;	4d;
8r	8r	8r
==	==	==
*-	*-	*-
!!!ENC: David Huron
!!!YEC: Copyright 1987, David Huron
!!!EEV: 1.0
